X:4
T:Ringlender etter Post-Anders
R:ringlender
Z:Smaaviltlaget, paa Skuddhold, Track 6
M:4/4
L:1/8
Q:1/4=160
K:A
|: "A"AGAB   "A/E"cBcd | "A"e2 {e}a2 "A/C#"c3 c |
   "E"c>B Be "E/B"E2GB | "A"A2 A<c "E"E3E |
   "A"AGAB   "A/E"cBcd | "A"e2 {e}a2 "A/C#"c3 c |
   "E"c>B Be "E/B"EGBG | "A"A2 "E"{B}AG "A"A4 :|
|: "E"{c}B3c "E/B"d3 f | "A"~f2 ed "A/C#"c3 ue |
   "E"edcd "E/B"(B>e)((3efg) | "A"a2 gf "A/C#"fe ec |
   "E"{c}BABc "E/B"d3 f | "A"~f2 ed "A/C#"c3 ue |
   "E"edcd "E/B"Befg | "A"a2 "E"{b}ag "A"a4 :|
|: "A"E2c2 "A/E"c2 BA | "E"Az G2 "E/B"G4 |
   "D"f2 f2 "E/B"~f2 (ed) | "A"d>d (cB) "E"c4 |
   "A"E2c2 "A/E"c2 BA | "E"Az G2 "E/B"G4 |
   "D"f2f2 "E"fd(BG) | "A"A2 "E"{B}(AG) "A"A4 :|
